Simply-Green-Circles/scalable/status/printer-error.svg

<svg xmlns="http://www.w3.org/2000/svg" width="24" height="24" viewBox="0 0 6.35 6.35"><path d="M1.73 1.02v.72h2.9v-.72h-2.9zM1 2.1a.39.39 0 0 0-.36.36v1.45c0 .18.18.36.36.36h.36v-.73h.37v1.78H3.8c-.05-.07-.11-.13-.15-.22l-.01-.09H2.05V3.55h1.92a1.42 1.42 0 0 1 1.54-.3c.08.04.13.1.2.14v-.92a.39.39 0 0 0-.36-.36H1z" fill="#2ca02c"/><path d="M4.96 3.45a1.12 1.12 0 1 0 0 2.23 1.12 1.12 0 0 0 0-2.23zm-.54.4l.53.52.53-.53.18.18-.53.53.53.53-.18.18-.53-.53-.53.53-.18-.18.53-.53-.53-.53z" fill="#ff2a2a"/></svg>

<?xml version="1.0" encoding="UTF-8" standalone="no"?>
<svg
   xmlns:dc="http://purl.org/dc/elements/1.1/"
   xmlns:cc="http://creativecommons.org/ns#"
   xmlns:rdf="http://www.w3.org/1999/02/22-rdf-syntax-ns#"
   xmlns:svg="http://www.w3.org/2000/svg"
   xmlns="http://www.w3.org/2000/svg"
   xmlns:sodipodi="http://sodipodi.sourceforge.net/DTD/sodipodi-0.dtd"
   xmlns:inkscape="http://www.inkscape.org/namespaces/inkscape"
   width="24"
   height="24"
   viewBox="0 0 6.35 6.35"
   version="1.1"
   id="svg6"
   sodipodi:docname="printer-error.svg"
   inkscape:version="0.92.4 (5da689c313, 2019-01-14)">
  <metadata
     id="metadata12">
    <rdf:RDF>
      <cc:Work
         rdf:about="">
        <dc:format>image/svg+xml</dc:format>
        <dc:type
           rdf:resource="http://purl.org/dc/dcmitype/StillImage" />
        <dc:title></dc:title>
      </cc:Work>
    </rdf:RDF>
  </metadata>
  <defs
     id="defs10" />
  <sodipodi:namedview
     pagecolor="#ffffff"
     bordercolor="#666666"
     borderopacity="1"
     objecttolerance="10"
     gridtolerance="10"
     guidetolerance="10"
     inkscape:pageopacity="0"
     inkscape:pageshadow="2"
     inkscape:window-width="1085"
     inkscape:window-height="480"
     id="namedview8"
     showgrid="false"
     inkscape:zoom="9.8333333"
     inkscape:cx="1.0677966"
     inkscape:cy="12"
     inkscape:window-x="0"
     inkscape:window-y="25"
     inkscape:window-maximized="0"
     inkscape:current-layer="svg6" />
  <path
     d="m 1.73,1.02 v 0.72 h 2.9 V 1.02 Z M 1,2.1 A 0.39,0.39 0 0 0 0.64,2.46 V 3.91 C 0.64,4.09 0.82,4.27 1,4.27 H 1.36 V 3.54 H 1.73 V 5.32 H 3.8 C 3.75,5.25 3.69,5.19 3.65,5.1 L 3.64,5.01 H 2.05 V 3.55 h 1.92 a 1.42,1.42 0 0 1 1.54,-0.3 c 0.08,0.04 0.13,0.1 0.2,0.14 V 2.47 A 0.39,0.39 0 0 0 5.35,2.11 H 1 Z"
     id="path2"
     inkscape:connector-curvature="0"
     style="fill:#2ca02c" />
  <path
     d="m 4.96,3.45 a 1.12,1.12 0 1 0 0,2.23 1.12,1.12 0 0 0 0,-2.23 z M 4.42,3.85 4.95,4.37 5.48,3.84 5.66,4.02 5.13,4.55 5.66,5.08 5.48,5.26 4.95,4.73 4.42,5.26 4.24,5.08 4.77,4.55 4.24,4.02 Z"
     id="path4"
     inkscape:connector-curvature="0"
     style="fill:#2ca02c" />
</svg>
